X:59
T:Kis falumba megjöttek a behívók
M:4/4
L:1/4
K:F
A,DFA | B/A/ G/F/ | E<D D2 |
A c d<A | d/d/ c/B/ | B/ (A^G/) A2 |
A/A/c/c/ d A | B/A/ G/F/ | E<D F2 |
A, D F A | B/A/ G/F/ | E/ (D ^C/) D2 |

